X:18
T:Polska från Småland
T:Svenska Folkdansar H3 nr 18
O:Småland
B:Traditioner av Svenska Folkdansar Häfte 3, nr 18
R:Polska
Z:Nils L
M:3/4
L:1/16
K:Gm
G2Bd g2gb bag^f | gdbg d4- d2ef | e2ce d4 cBAG | ^Fd^cd =Edcd Ddcd |
G2Bd g2gb bag^f | gdbg d4 (d2e=f) | edcB A2ag ^fedc | BgA^f ([fA]4 [gB]4) ::
babf dBd=f babd' | c'=bc'a fAcf abc'a | bag^f gdBd cdAd | B2d'd ([af]2[g=e]2) ([ge]2[fd]2) |
g^fgd BGBd g^fgb | a^ga^f dD^FA d^fac' | b2bd' c'2c'a d'2d'a | bga^f g2b2 g4 :|

